X:1
T:Here Again
T:Alonzo Judson Abbey
T:Here Again
T:Public Domain
T:Public Domain
T:Public Domain
C:Alonzo Judson Abbey
Z:Public Domain
%%score ( 1 2 ) ( 3 4 )
L:1/8
M:2/4
K:Eb
V:1 treble 
V:2 treble 
V:3 bass 
V:4 bass 
V:1
 B | [Ge][Ge] [Fd][AB] | [Ge][Ge] [Fd][DB] | [FA][EG] [DF][FA] | [EG][GB] [GB]E | GB [Ge][GB] | %6
w: 1.~With|to- night a- gain|we meet, With song|the Christ- mas time|to greet; Our hearts|voic- es now we|
w: 2.~In|le- hem the Lord|was born; His com-|ing brought the glor-|ious morn; We bring|Him our gift of|
w: 3.~We|the name of God|a- bove, We thank|Him for His bound-|less love; Oh! why|we not hap- py|
 [Ac][Af] [Af][Fe] | [Fd][=E^c] [Fd][DB] | [Ec][Fd] [Ge] ||"^Refrain" [GB] | [Fe][Fe] [Fd][DB] | %11
w: give to Christ, our|Sav- ior, praise. We’ll|sing to- night|and|hap- py be, And|
w: would the notes of|joy pro- long. *||||
w: Christ from sin hath|set us free? *||||
 [Ec][Ec] [DB][EB] | [Ec][Ad] [Ge][Ge] | [Fd][Ge] [Af][Ad] | [Ge][GB] [GB][Ge] | [Ad][Ac] [Ac]2 | %16
w: shout a- loud o’er|earth and sea, The|Christ- mas time is|here a- gain; Glo-|ry to God,|
w: |||||
w: |||||
 [FB][FB]/[FB]/ [GB][Ge] | [Ae][Ad] [Ge]2 | EE GG | B2 B z | [Ge][Ge]/[Ge]/ [Ge][Gd] | %21
w: good will to men! Glo-|ry! Glo- ry!|Glo- ry! Glo- ry|es sing,|to God! let sweet bells|
w: |||||
w: |||||
 [Ac][A=B] [Ac]2 | [=Af][Af]/[Af]/ [Af][Ae] | [Bd][B^c] [Bd][AB] | [Ge][GB] [GB][Ge] | %25
w: ring; The Christ-|mas time is here a-|gain; Glo- ry to|God! good will to|
w: ||||
w: ||||
 [Ad][Ac] [Ac]2 | [FB][FB]/[FB]/ [FB][Ge] | [Ae][Ad] [Ge] || z | %29
w: men. Glo- ry!|glo- ry! Glo- ry to|God! good will||
w: ||||
w: ||||
 (A"^After last verse"A/A/) [Ge] z | (AA/A/) [Ge] z | [Ge][Ge]/[Ge]/ [Ge][Ge] | [Bg]2 [Af]2 | %33
w: to * * men.||||
w: ||||
w: ||||
 [Ge]3 |] %34
w: |
w: |
w: |
V:2
 B | x4 | x4 | x4 | x3 E | GB x2 | x4 | x4 | x3 || x | x4 | x4 | x4 | x4 | x4 | x4 | x4 | x4 | %18
w: joy||||and|raise, To|||||||||||||
w: Beth-||||to|song, And|||||||||||||
w: praise||||should|be, Since|||||||||||||
 EE GG | B2 B x | x4 | x4 | x4 | x4 | x4 | x4 | x4 | x3 || x | e2 x2 | e2 x2 | x4 | x4 | x3 |] %34
w: to God! let voic-|Glo- ry|||||||||||||||
w: ||||||||||||||||
w: ||||||||||||||||
V:3
 B, | [E,B,][G,B,] B,[B,,B,] | [E,B,][G,B,] B,B, | B,B, B,[B,,B,] | [E,B,][E,E] [E,E]E, | %5
w: ~|~ ~ ~ ~|~ ~ ~ ~|~ ~ ~ ~|~ ~ ~ ~|
 G,B, [G,E][E,E] | [A,E][A,C] [A,C][=A,C] | B,B, B,B, | [B,,B,][B,,B,] [E,B,] || [E,B,] | %10
w: ~ ~ ~ ~|~ We’ll sing, we’ll|sing and hap- py|~ ~ ~|~|
 [F,=A,][F,A,] B,B, | [F,=A,][F,A,] B,[G,B,] | A,[F,B,] [E,B,][E,B,] | B,[B,E] [B,D][B,,B,] | %14
w: ~ ~ ~ ~|~ ~ ~ ~|~ ~ ~ ~|~ ~ ~ ~|
 [E,B,][E,E] [E,E][E,E] | [A,E][A,E] [A,E]2 | [B,D][B,D]/[B,D]/ [E,E][E,B,] | %17
w: ~ ~ Glo- ry,|glo- ry to|God! Glo- ry, glo- ry|
 [B,,B,][B,,B,] [E,B,]2 | E,E, G,G, | B,2 B, z |"^Soli" E,2 E,2 | %21
w: to God! ~|~ ~ ~ ~|~ ~|~ ~|
"^Chorus" [A,E][A,E]/[A,E]/ [A,E]2 |"^Soli" F,2 F,2 | [B,F][B,F]/[B,F]/ [B,F][B,D] | %24
w: ~ Glo- ry to|God! glo-|ry to God! * *|
 [E,B,][E,E] [E,E][E,E] | [A,E][A,E] [A,E]2 | [B,D][B,D]/[B,D]/ [E,E][E,B,] | %27
w: |||
 [B,,B,][B,,B,] [E,B,] || z | [A,C][A,C]/[A,C]/ [E,B,] z | [A,C][A,C]/[A,C]/ [E,B,] z | %31
w: ||||
 [CE][CE]/[CE]/ [CE][CE] | [B,E]2 [B,,D]2 | [E,E]3 |] %34
w: |||
V:4
 B, | x2 B, x | x2 B,B, | B,B, B, x | x3 E, | G,B, x2 | x4 | B,B, B,B, | x3 || x | x2 B,B, | %11
w: ~|~|~ ~|~ ~ ~|~|~ ~||be, ~ ~ ~|||~ ~|
 x2 B, x | A, x3 | B, x3 | x4 | x4 | x4 | x4 | E,E, G,G, | B,2 B, x | x4 | x4 | x4 | x4 | x4 | x4 | %26
w: ~|~|~|||||~ ~ ~ ~|~ ~|||||||
 x4 | x3 || x | x4 | x4 | x4 | x4 | x3 |] %34
w: ||||||||

